X: 1
T: Fynbo #1
O: Denmark
R: fynbo
Z: 2014 John Chambers <jc:trillian.mit.edu>
S: handwritten MS by John Chambers (1970s)
M: 2/4
L: 1/16
K: D
|:\
"D"fed2 d2F2 | AGFG "A7"E4 | gfe2 edc2 |\
[1,3 "D"d2fe d4 :|[2,4 "D"d4 d4 :|[K:A]
|:\
"A"c2ce "E7"B2Bd | "A"cBAc "E7"B2Bd | "A"cBAc "E7"B2{A}G2 |\
[1,3 "A"ABcd "E7"e4 :|[2,4 "A"A4 "(+7)"A4 :|[K:=g][K:D]
|:\
"D"{e}f2f2 a3a | "G"a2g2 b3b |\
[1,3 "A7"e2e2 g3g | "D"g2f2 d4 :|\
[2,4 "G"bag2 "A7"gfe2 | "D"d4 d4 :|

